src/content/resume/images/vilnius-justinas-vienozinskis-art-school.svg

<svg width="128" height="64" viewBox="0 0 128 64" fill="none" xmlns="http://www.w3.org/2000/svg">
<path fill-rule="evenodd" clip-rule="evenodd" d="M56.7858 13.0969C56.7944 13.1503 56.7944 15.0115 56.7858 17.233L56.7706 21.2721H55.5427H54.3148L54.3133 26.0867C54.3113 32.1842 54.2286 32.5838 52.8217 33.2907C52.2704 33.5678 52.0121 33.6113 50.9493 33.6061C50.2713 33.6029 49.6461 33.5566 49.5599 33.5033C49.4573 33.4399 49.4032 33.0312 49.4032 32.3174V31.2285L50.1464 31.3059C50.7727 31.3713 50.9404 31.3422 51.2128 31.1216L51.5359 30.8599L51.5732 26.6476L51.6107 22.4354H49.6668H47.723V29.6088V36.7823H50.4312H53.1394L53.0776 37.3963C53.0436 37.734 52.8437 40.6857 52.6334 43.9558C52.4229 47.2259 52.228 50.1486 52.2 50.4507L52.1493 51H53.165C54.1152 51 54.1843 50.9813 54.2376 50.7092C54.2689 50.5492 54.421 48.5281 54.5756 46.2177C54.7302 43.9073 54.8676 42.0054 54.8809 41.9912C54.9273 41.9415 60.9232 41.9259 60.9724 41.9751C61.0121 42.0148 61.5529 50.283 61.5529 50.8492C61.5529 50.9508 61.8698 51 62.5223 51H63.4917V50.4328C63.4917 50.121 63.3172 47.0238 63.104 43.5502C62.8908 40.0767 62.7163 37.133 62.7163 37.0085C62.7162 36.8014 62.913 36.7823 65.0427 36.7823H67.3692V29.6088V22.4354H64.3392H61.3093L61.2695 21.8861L61.2298 21.3367L60.0988 21.2994L58.9679 21.262V17.131V13H57.8692C57.265 13 56.7774 13.0436 56.7858 13.0969ZM69.825 30.6226V36.7823L71.4083 36.7813C74.6306 36.7793 76.0792 36.4125 76.8851 35.3947C77.9 34.1127 78.2078 33.1839 78.3097 31.0952C78.4248 28.7418 77.9115 26.8991 76.8549 25.8714C75.8444 24.8884 75.0282 24.6635 72.0546 24.5488L69.825 24.4628V30.6226ZM79.9066 30.6429V36.7823H81.0053H82.1039L82.1192 32.3554C82.1277 29.9206 82.1286 27.8413 82.1212 27.7347C82.0746 27.053 82.4711 28.5909 83.2712 32.1939C83.7763 34.4687 84.2163 36.4242 84.2487 36.5393C84.2928 36.6949 84.4814 36.7532 84.9831 36.7663C86.4289 36.8038 86.2093 37.2094 87.4114 32.2828C87.9957 29.8879 88.5093 27.8413 88.5525 27.7347C88.5957 27.6281 88.6602 29.6056 88.6958 32.1293L88.7604 36.7177H89.9883H91.2162L91.2498 30.6072L91.2834 24.4967L89.323 24.5324L87.3628 24.568L86.4541 28.1115C85.8401 30.5056 85.5144 31.5745 85.4499 31.4074C85.3671 31.1931 84.4547 27.1792 84.0347 25.182L83.892 24.5034H81.8993H79.9066V30.6429ZM36.7366 24.737C36.7366 24.7943 37.3764 27.5023 38.1583 30.7545C38.9403 34.0069 39.5801 36.6936 39.5801 36.7251C39.5801 36.7566 40.2742 36.7823 41.1225 36.7823C42.4787 36.7823 42.6731 36.755 42.734 36.5561C42.8179 36.2819 45.6549 24.747 45.6549 24.68C45.6549 24.654 45.1065 24.6327 44.4362 24.6327H43.2175L43.0676 25.3759C42.9851 25.7845 42.6959 27.1369 42.4246 28.381C42.1534 29.625 41.8299 31.1372 41.7058 31.7415C41.5816 32.3457 41.4435 32.9115 41.3991 32.9986C41.3546 33.0857 40.9755 31.4281 40.5567 29.3149C40.138 27.2018 39.7441 25.2837 39.6816 25.0527L39.568 24.6327H38.1523C37.3737 24.6327 36.7366 24.6796 36.7366 24.737ZM60.5107 28.8557C61.0701 31.6944 61.3763 32.9956 61.4455 32.8291C61.5021 32.693 61.9011 30.924 62.3323 28.898C62.7635 26.8719 63.1489 25.0834 63.1887 24.9235C63.2575 24.6476 63.3239 24.6327 64.475 24.6327C65.1427 24.6327 65.689 24.6544 65.689 24.681C65.689 24.7423 62.8556 36.2517 62.7657 36.5561C62.7097 36.7452 62.5414 36.7823 61.7404 36.7823H60.7822L60.8631 38.5595L60.9439 40.3367L58.0494 40.3093C56.4574 40.2942 55.1066 40.2796 55.0477 40.277C54.9453 40.2724 55.0297 38.0859 55.1663 37.2024L55.2313 36.7823H57.4315C59.4652 36.7823 59.6267 36.7653 59.5668 36.5561C59.4065 35.9966 56.7706 24.8793 56.7706 24.7631C56.7706 24.6831 57.3323 24.633 58.2247 24.6337L59.6787 24.6347L60.5107 28.8557ZM74.1642 27.0193C74.5192 27.1677 74.6935 27.371 74.9679 27.9564C75.3 28.6653 75.3182 28.8048 75.3182 30.6429C75.3182 32.5098 75.3046 32.6093 74.9522 33.327C74.5338 34.1792 74.1785 34.4184 73.2416 34.4792L72.6039 34.5204L72.5697 30.6752L72.5354 26.8299H73.1231C73.4464 26.8299 73.9149 26.9151 74.1642 27.0193Z" fill="currentColor"/>
</svg>

<svg xmlns="http://www.w3.org/2000/svg" width="128" height="64" fill="none" viewBox="0 0 128 64"><path fill="currentColor" fill-rule="evenodd" d="M56.786 13.097c.008.053.008 1.915 0 4.136l-.015 4.04h-2.456l-.002 4.814c-.002 6.097-.084 6.497-1.491 7.204-.552.277-.81.32-1.873.315-.678-.003-1.303-.05-1.39-.103-.102-.063-.156-.472-.156-1.186V31.23l.743.077c.627.065.794.036 1.067-.184l.323-.262.037-4.212.038-4.213h-3.888V36.782h5.416l-.061.614c-.034.338-.234 3.29-.445 6.56-.21 3.27-.405 6.193-.433 6.495l-.05.549h1.015c.95 0 1.02-.019 1.073-.29.03-.16.183-2.182.338-4.492.154-2.31.292-4.213.305-4.227.046-.05 6.042-.065 6.091-.016.04.04.58 8.308.58 8.874 0 .102.318.151.97.151h.97v-.567c0-.312-.175-3.41-.388-6.883a830.577 830.577 0 0 1-.388-6.541c0-.208.197-.227 2.327-.227h2.326V22.435h-6.06l-.04-.549-.04-.55-1.13-.037-1.131-.037V13h-1.099c-.604 0-1.092.044-1.083.097Zm13.039 17.526v6.16l1.583-.002c3.223-.002 4.671-.368 5.477-1.386 1.015-1.282 1.323-2.211 1.425-4.3.115-2.353-.398-4.196-1.455-5.224-1.01-.983-1.827-1.207-4.8-1.322l-2.23-.086v6.16Zm10.082.02v6.14h2.197l.015-4.428c.009-2.434.01-4.514.002-4.62-.046-.682.35.856 1.15 4.459.505 2.275.945 4.23.978 4.345.044.156.232.214.734.227 1.446.038 1.226.443 2.428-4.483.585-2.395 1.098-4.442 1.141-4.548.044-.107.108 1.87.144 4.394l.064 4.589h2.456l.034-6.11.033-6.111-1.96.035-1.96.036-.909 3.543c-.614 2.395-.94 3.463-1.004 3.296-.083-.214-.995-4.228-1.415-6.225l-.143-.679H79.907v6.14Zm-43.17-5.906c0 .057.64 2.765 1.421 6.018.782 3.252 1.422 5.939 1.422 5.97 0 .032.694.057 1.543.057 1.356 0 1.55-.027 1.611-.226.084-.274 2.92-11.809 2.92-11.876 0-.026-.548-.047-1.218-.047h-1.218l-.15.743c-.083.409-.372 1.76-.643 3.005a383.926 383.926 0 0 0-.72 3.36c-.123.605-.261 1.17-.306 1.258-.044.087-.424-1.57-.842-3.684-.419-2.113-.813-4.031-.875-4.262l-.114-.42h-1.416c-.778 0-1.415.047-1.415.104Zm23.774 4.119c.56 2.838.865 4.14.934 3.973.057-.136.456-1.905.887-3.931s.817-3.815.857-3.974c.069-.276.135-.291 1.286-.291.668 0 1.214.021 1.214.048 0 .061-2.833 11.57-2.923 11.875-.056.19-.225.226-1.026.226h-.958l.081 1.778.08 1.777-2.894-.028a641.27 641.27 0 0 1-3.001-.032c-.103-.005-.018-2.191.118-3.075l.065-.42h2.2c2.034 0 2.196-.017 2.136-.226-.16-.56-2.796-11.677-2.796-11.793 0-.08.561-.13 1.454-.13l1.454.002.832 4.22Zm13.653-1.837c.355.149.53.352.804.937.332.71.35.849.35 2.687 0 1.867-.013 1.966-.366 2.684-.418.852-.773 1.091-1.71 1.152l-.638.041-.034-3.845-.035-3.845h.588c.323 0 .792.085 1.041.19Z" clip-rule="evenodd"/></svg>
